packages/components/icon/src/assets/icons/notification.svg

<svg viewBox="0 0 24 24" fill="none" xmlns="http://www.w3.org/2000/svg"><path d="M20.8 1H3.2c-1.21 0-2.189.99-2.189 2.2L1 23l4.4-4.4h15.4c1.21 0 2.2-.99 2.2-2.2V3.2c0-1.21-.99-2.2-2.2-2.2Zm-7.7 13.2h-2.2V12h2.2v2.2Zm0-4.4h-2.2V5.4h2.2v4.4Z" fill="currentColor"/></svg>

<svg width="24" height="24" viewBox="0 0 24 24" fill="none" xmlns="http://www.w3.org/2000/svg">
<path d="M20.8 1H3.2C1.99 1 1.011 1.99 1.011 3.2L1 23L5.4 18.6H20.8C22.01 18.6 23 17.61 23 16.4V3.2C23 1.99 22.01 1 20.8 1ZM13.1 14.2H10.9V12H13.1V14.2ZM13.1 9.8H10.9V5.4H13.1V9.8Z" fill="currentColor"/>
</svg>
